X:1
T:Hymn till Fosterlandet
T:Hymn till Fosterlandet
T:ut operan "Vikingarne"
T:Ivar Hallström
C:Ivar Hallström
%%score [ 1 2 3 4 ]
L:1/8
Q:1/4=72
M:4/4
K:Eb
V:1 treble-8 nm="T1"
V:2 treble-8 nm="T2"
V:3 bass nm="B1"
V:4 bass nm="B2"
V:1
"^Maestoso"!f! g3 e e2 B3/2 e/ | e4 z2 f3/2 a/ | g4 f3 e | d4 z2!p! B3/2 B/ | %4
w: Hell dig, äl- ska- de|nord, du vår|fä- der- ne-|jord! Al- drig|
!<(! c2 d3/2 d/ e2 _d3/2!<)! d/ | c2 =e3/2 e/ f2!f! ^f3/2 f/ | g2 e3/2 c/ e2 d3/2 c/ | %7
w: skö- na- re låg du i|glans för vår håg, än när|fjer- ran på våg dig vårt|
 c2 =B3/2 c/ d2 z2 |!f! c2- (3c!p! d e (3f e d (3e d c | d2!f! (3g g g g2 z2 | %10
w: min- ne blott såg!|Hell _ di- na grön- skan- de ö- ar och|sund, hell di- na sund!|
!f! c2- (3c!p! d e (3f e d (3e d c | d2!f! (3g g g g2 z2 | e3/2 e/ e e"^dim." e4 | %13
w: Hell _ di- na fu- ror på fjell- be- mängd|grund, fjell- be- mängd grund!|Hell din vin- ter- natt|
!p! e3/2 e/ e e =e4 | =e3/2!<(! e/ f f f3 g!<)! |!f! a2 c3/2 f/ f4 | g3 e e2 B3/2 e/ | %17
w: med sin stjer- ne- skatt!|Hell dig hö- ga nord, vår|fä- der- ne- jord!|Hell dig, äl- ska- de|
 e4 z2 f3/2 a/ | g4 f3 e | d4 z2!p! B3/2 B/ | c2 d3/2 d/ e2!<(! =e3/2 e/ | %21
w: nord, du vår|fä- der- ne-|jord! Al- drig|skö- na- re låg du i|
 f2 g3/2 g/ a2!<)!!f! =a3/2 a/ | b2 g3/2 e/ g2 f3/2 e/ | (ed) c d e2 z2 |!f! g2- (3g z z z4 | %25
w: glans för vår håg, än när|fjer- ran på våg dig vårt|min- * ne blott såg!|Hell _|
 z2!f! (3d d d d2 z2 |!f! g2- (3g z z z4 | z2!f! (3f f f f2 z2 | d3/2 d/ d d"^dim." d4 | %29
w: hell di- na sund!|Hell _|fjell- be- mängd grund!|Hell din vin- ter- natt|
!p! d3/2 d/ d d =e4 | f3/2!<(! f/ f _e!<)! a3 g | g2 f3/2 e/ d4 |!f! g3 f f2 B3/2 e/ | %33
w: med sin stjer- ne- skatt!|Hell dig hö- ga nord, vår|fä- der- ne- jord!|Hell dig, äl- ska- de|
 e4 z2 f3/2 f/ | b6 d3/2 d/ | !fermata!e8 |] %36
w: nord, du vår|fä- der- ne-|jord!|
V:2
!f! e3 B B2 G3/2 B/ | c4 z2 f3/2 e/ | e4 e3 =A | B4 z2!p! B3/2 B/ |!<(! B2 B3/2 B/ B2 B3/2!<)! B/ | %5
w: Hell dig, äl- ska- de|nord, du vår|fä- der- ne-|jord! Al- drig|skö- na- re låg du i|
 B2 B3/2 B/ c2!f! _e3/2 e/ | e2 c3/2 G/ c2 G3/2 G/ | _G2 =B3/2 c/ B2 z2 | %8
w: glans för vår håg, än när|fjer- ran på våg dig vårt|min- ne blott såg!|
!f! G2- (3G!p! c c (3c c c (3c c c | =B2!f! (3B B B B2 z2 |!f! G2- (3G!p! c c (3c c c (3c c c | %11
w: Hell _ di- na grön- skan- de ö- ar och|sund, hell di- na sund!|Hell _ di- na fu- ror på fjell- be- mängd|
 =B2!f! (3B B B B2 z2 | c3/2 c/ c c"^dim." _d4 |!p! _c3/2 c/ c c =B4 | =c3/2!<(! c/ c _e d3 e!<)! | %15
w: grund, fjell- be- mängd grund!|Hell din vin- ter- natt|med sin stjer- ne- skatt!|Hell dig hö- ga nord, vår|
!f! f2 c3/2 _c/ B4 | B3 B B2 G3/2 B/ | c4 z2 f3/2 e/ | e4 e3 =A | B4 z4 | z8 | z4 z2!f! e3/2 e/ | %22
w: fä- der- ne- jord!|Hell dig, äl- ska- de|nord, du vår|fä- der- ne-|jord!||än när|
 e2 e3/2 e/ B2 c3/2 c/ | A2 A A G2 z2 |!f! d2- (3d!p! c d (3e d c (3d c B | =A2!f! (3A c B A2 z2 | %26
w: fjer- ran på våg dig vårt|min- ne blott såg!|Hell _ di- na grön- skan- de ö- ar och|sund, hell di- na sund!|
!f! d2- (3d!p! c d (3e d c (3d c B | c2!f! (3c e d c2 z2 | B3/2 B/ B B"^dim." =A4 | %29
w: Hell _ di- na fu- ror på fjell- be- mängd|grund, fjell- be- mängd grund!|Hell din vin- ter- natt|
!p! =B3/2 B/ B B c4 | c3/2!<(! c/ _B B!<)! d3 e | c2 c3/2 c/ B4 |!f! B3 B B2 G3/2 B/ | %33
w: med sin stjer- ne- skatt!|Hell dig hö- ga nord, vår|fä- der- ne- jord!|Hell dig, äl- ska- de|
 c4 z2 c3/2 [ce]/ | (([Be]2 [Bd]4)) B3/2 B/ | !fermata!B8 |] %36
w: nord, du vår|fä- * der- ne-|jord!|
V:3
!f! B,3 G, G,2 E,3/2 E,/ | E,4 z2 C3/2 C/ | B,4 =A,3 F, | F,4 z2!p! B,3/2 B,/ | %4
w: Hell dig, äl- ska- de|nord, du vår|fä- der- ne-|jord! Al- drig|
!<(! =A,2 _A,3/2 A,/ G,2 F,3/2!<)! F,/ | =E,2 G,3/2 G,/ A,2!f! C3/2 C/ | %6
w: skö- na- re låg du i|glans för vår håg, än när|
 C2 G,3/2 E,/ G,2 F,3/2 E,/ | D,2 ^F,3/2 F,/ G,2 z2 |!f! E,2- (3E,!p! F, G, (3A, G, F, (3G, F, E, | %9
w: fjer- ran på våg dig vårt|min- ne blott såg!|Hell _ di- na grön- skan- de ö- ar och|
 G,2!f! (3[D,G,] [D,G,] [D,G,] [D,G,]2 z2 |!f! E,2- (3E,!p! F, G, (3A, G, F, (3G, F, E, | %11
w: sund, hell di- na sund!|Hell _ di- na fu- ror på fjell- be- mängd|
 G,2!f! (3[D,G,] [D,G,] [D,G,] [D,G,]2 z2 | G,3/2 G,/ G, G,"^dim." G,4 |!p! A,3/2 A,/ A, A, ^G,4 | %14
w: grund, fjell- be- mängd grund!|Hell din vin- ter- natt|med sin stjer- ne- skatt!|
 =A,3/2!<(! A,/ A, C _B,3 B,!<)! |!f! C2 A,3/2 A,/ A,4 | G,3 G, G,2 E,3/2 E,/ | E,4 z2 C3/2 C/ | %18
w: Hell dig hö- ga nord, vår|fä- der- ne- jord!|Hell dig, äl- ska- de|nord, du vår|
 B,4 =A,3 F, | F,4 z2!p! B,3/2 B,/ | B,2 B,3/2 B,/ B,2!<(! _D3/2 D/ | %21
w: fä- der- ne-|jord! Al- drig|skö- na- re låg du i|
 C2 C3/2 C/ C2!<)!!f! C3/2 C/ | B,2 B,3/2 G,/ E,2 E,3/2 F,/ | F,2 E, F, E,2 z2 | %24
w: glans för vår håg, än när|fjer- ran på våg dig vårt|min- ne blott såg!|
!f! B,2- (3B,!p! =A, B, (3C B, A, (3B, A, G, | ^F,2!f! (3F, =A, G, F,2 z2 | %26
w: Hell _ di- na grön- skan- de ö- ar och|sund, hell di- na sund!|
!f! B,2- (3B,!p! =A, B, (3C B, A, (3B, A, G, | =A,2!f! (3A, C B, A,2 z2 | %28
w: Hell _ di- na fu- ror på fjell- be- mängd|grund, fjell- be- mängd grund!|
 F,3/2 F,/ F, F,"^dim." ^F,4 |!p! G,3/2 G,/ G, G, G,4 | A,3/2!<(! A,/ A, G,!<)! B,3 B, | %31
w: Hell din vin- ter- natt|med sin stjer- ne- skatt!|Hell dig hö- ga nord, vår|
 A,2 A,3/2 _G,/ F,4 |!f! =G,3 G, G,2 E,3/2 E,/ | E,4 z2 A,3/2 A,/ | %34
w: fä- der- ne- jord!|Hell dig, äl- ska- de|nord, du vår|
 ((G,2 [F,A,]4)) [F,A,]3/2 [F,A,]/ | !fermata![E,G,]8 |] %36
w: fä- * der- ne-|jord!|
V:4
!f! E,3 E, E,2 E,3/2 G,,/ | A,,4 z2 A,3/2 A,,/ | B,,4 C,3 F,, | B,,4 z2 z2 | z8 | %5
w: Hell dig, äl- ska- de|nord, du vår|fä- der- ne-|jord!||
 z4 z2!f! A,,3/2 A,,/ | G,,2 C,3/2 E,/ G,2 G,3/2 G,,/ | =A,,2 D,3/2 D,/ G,,2 z2 | %8
w: än när|fjer- ran på våg dig vårt|min- ne blott såg!|
!f! C,2- (3C,!p! C, C, (3C, C, C, (3C, C, C, | G,2!f! (3G,, G,, G,, G,,2 z2 | %10
w: Hell _ di- na grön- skan- de ö- ar och|sund, hell di- na sund!|
!f! C,2- (3C,!p! C, C, (3C, C, C, (3C, C, C, | G,2!f! (3G,, G,, G,, [G,,D,]2 z2 | %12
w: Hell _ di- na fu- ror på fjell- be- mängd|grund, fjell- be- mängd grund!|
 C,3/2 C,/ C, C,"^dim." _B,,4 |!p! A,,3/2 A,,/ A,, A,, =E,4 | =A,3/2!<(! A,/ A, A, _A,3 G,!<)! | %15
w: Hell din vin- ter- natt|med sin stjer- ne- skatt!|Hell dig hö- ga nord, vår|
!f! F,2 F,3/2 E,/ D,4 | E,3 E, E,2 E,3/2 G,,/ | A,,4 z2 A,3/2 A,,/ | B,,4 C,3 F,, | %19
w: fä- der- ne- jord!|Hell dig, äl- ska- de|nord, du vår|fä- der- ne-|
 B,,4 z2!p! B,3/2 B,/ | =A,2 _A,3/2 A,/ G,2!<(! B,3/2 B,/ | A,2 =E,3/2 E,/ F,2!<)!!f! ^F,3/2 F,/ | %22
w: jord! Al- drig|skö- na- re låg du i|glans för vår håg, än när|
 G,2 E,3/2 B,,/ G,,2 A,,3/2 A,,/ | B,,2 B,, B,, E,2 z2 | %24
w: fjer- ran på våg dig vårt|min- ne blott såg!|
!f! [G,,G,]2- (3[G,,G,]!p! G, G, (3G, G, G, (3G, G, G, | D,2!f! (3D, D, D, D,2 z2 | %26
w: Hell _ di- na grön- skan- de ö- ar och|sund, hell di- na sund!|
!f! [G,,G,]2- (3[G,,G,]!p! G, G, (3G, G, G, (3G, G, G, | %27
w: Hell _ di- na fu- ror på fjell- be- mängd|
 F,2!f! (3[F,,F,] [F,,F,] [F,,F,] [F,,F,]2 z2 | B,,3/2 B,,/ B,, B,,"^dim." D,4 | %29
w: grund, fjell- be- mängd grund!|Hell din vin- ter- natt|
!p! G,3/2 G,/ G, G, C,4 | F,3/2!<(! F,/ D, E,!<)! F,3 E, | A,,2 A,,3/2 =A,,/ B,,4 | %32
w: med sin stjer- ne- skatt!|Hell dig hö- ga nord, vår|fä- der- ne- jord!|
!f! E,3 E, E,2 E,3/2 G,,/ | A,,4 z2 A,,3/2 A,,/ | B,,6 B,,3/2 B,,/ | !fermata!E,,8 |] %36
w: Hell dig, äl- ska- de|nord, du vår|fä- der- ne-|jord!|

